src/svg/uf151-caret-square-o-up,toggle-up.svg

<!-- Generated by IcoMoon.io -->
<svg version="1.1" xmlns="http://www.w3.org/2000/svg" width="27" height="32" viewBox="0 0 27 32">
<path d="M20.446 19.946c-0.196 0.393-0.589 0.625-1.018 0.625h-11.429c-0.429 0-0.821-0.232-1.018-0.625-0.196-0.375-0.161-0.839 0.089-1.179l5.714-8c0.214-0.304 0.554-0.482 0.929-0.482s0.714 0.179 0.929 0.482l5.714 8c0.25 0.339 0.286 0.804 0.089 1.179zM22.857 24.571v-17.143c0-0.304-0.268-0.571-0.571-0.571h-17.143c-0.304 0-0.571 0.268-0.571 0.571v17.143c0 0.304 0.268 0.571 0.571 0.571h17.143c0.304 0 0.571-0.268 0.571-0.571zM27.429 7.429v17.143c0 2.839-2.304 5.143-5.143 5.143h-17.143c-2.839 0-5.143-2.304-5.143-5.143v-17.143c0-2.839 2.304-5.143 5.143-5.143h17.143c2.839 0 5.143 2.304 5.143 5.143z"></path>
</svg>

<svg xmlns="http://www.w3.org/2000/svg" width="27" height="32"><path d="M20.446 19.946a1.127 1.127 0 0 1-1.018.625H7.999c-.429 0-.821-.232-1.018-.625a1.125 1.125 0 0 1 .089-1.179l5.714-8c.214-.304.554-.482.929-.482s.714.179.929.482l5.714 8c.25.339.286.804.089 1.179zm2.411 4.625V7.428a.587.587 0 0 0-.571-.571H5.143a.587.587 0 0 0-.571.571v17.143c0 .304.268.571.571.571h17.143a.587.587 0 0 0 .571-.571zm4.572-17.142v17.143a5.145 5.145 0 0 1-5.143 5.143H5.143A5.145 5.145 0 0 1 0 24.572V7.429a5.145 5.145 0 0 1 5.143-5.143h17.143a5.145 5.145 0 0 1 5.143 5.143z"/></svg>
